X:1
T:Gaudium Cæleste, 66.77.77.6
T:Gaudium Cæleste, 66.77.77.6
T:Charles Hubert Hastings Parry, 1904
T:Public Domain Courtesy of the Cyber Hymnal™
C:Charles Hubert Hastings Parry, 1904
Z:Public Domain
Z:Courtesy of the Cyber Hymnal™
%%score ( 1 2 ) ( 3 4 )
L:1/8
Q:1/4=110
M:4/4
K:F
V:1 treble 
V:2 treble 
V:3 bass 
V:4 bass 
V:1
 [CF]2 [EG]2 | (A4 B2) [Fc]2 | [Fd]4 [FA]2 [FB]2 | c4 [Ad]2 [Ge]2 | [Ff]4 [Fd]2 [Fc]2 | %5
 [GB]3 [GB] [Gc]2 [Fd]2 | G3 z G [Ec]2 [EB]2 | [FA]3 [FA] [FB]2 [Fc]2 x | F4 F2 [EG]2 | %9
 [FA]3 [FA] [F=B]2 E2 | [Ec]4 [EA]2 [^G=B]2 | [Ac]2 [Ac]2 [Ad]2 G2 | e8 | [Ff]4 [FA]2 [Fc]2 | %14
 d4 z2 x6 | F4 |] %16
V:2
 x4 | F6 x2 | x8 | F2 E2 x4 | x8 | x8 | F2 E2 x5 | x9 | F4 F2 x2 | x6 E2 | x8 | x6 G2 | %12
 (G2 B3 A G2) | x8 | F6 (G4 E2) | F4 |] %16
V:3
 [A,C]2 [G,B,]2 | C4 [D,B,]2 [F,A,]2 | [B,,B,]4 [D,F,]2 [D,G,]2 | (A,2 G,2 C2) [B,C]2 | %4
 [A,C]4 B,2 [A,C]2 | [G,D]3 [G,D] [A,D]2 [B,D]2 | C3 [B,C] [A,C]2 [G,C]2 x | %7
 C3 z C [D,B,]2 [C,A,]2 | [D,B,]2 [B,,D]2 [A,,C]2 [C,B,]2 | [F,A,]2 [E,C]2 [D,=B,]2 [E,^G,]2 | %10
 A,4 [CE]2 [=B,D]2 | [A,C]2 [G,E]2 [F,D]2 [G,=B,]2 | C8 | [A,C]4 [F,C]2 [A,,C]2 | %14
 (B,2 A,2) (G,2 B,2) x4 | [F,A,]4 |] %16
V:4
 x4 | F,2 E,2 x4 | x8 | C,4 C2 x2 | x4 B,2 x2 | x8 | C3 x6 | F,2 E,2 x5 | x8 | x8 | A,4 x4 | x8 | %12
 (C,2 G,2 C2 B,2) | x8 | B,,4 C,4 x4 | x4 |] %16

